X:380
T:Brkino Kolo
Z:Jack Campin, http://www.campin.me.uk/
F:Jack Campin's Nine-Note Tunebook
% last edit 03-07-2015
M:2/4
L:1/16
Q:1/4=112 "Allegro"
G:Serbian or Croatian dance
K:DMin
"Gm"GDGB "D"ADAc|"Gm"BAGB "D"ADE^F|   "Gm" G2d^c   BcBA|"A7"GABG "D"A4   :|
"Gm"G2d^c   BcBA|"A7"GABG "D"ADE^F|   "Gm" G2d^c   BcBA|"A7"GABG "D"A4   :|
"Gm"B2z2 "D"A2A2|"Gm"GABG "D"A2A2 |   "Gm" B2z2 "D"A2A2|"A7"GABG "D"A4   :|
"D"(c8-         |    c2c2    d2c2)|   "Gm"(B8-         |    B2AB    c2B2) |
"D"(A8-         |    A2AB    c2B2)|[1 "D" (A8-         |    A2G2    A2B2):|\
                                   [2 "D"  A8-         |    A8           |]

